assets/img/icons/duotone-icons/Cooking/Knife&fork#1.svg

<?xml version="1.0" encoding="UTF-8"?>
<svg width="24px" height="24px" viewBox="0 0 24 24" version="1.1" xmlns="http://www.w3.org/2000/svg" xmlns:xlink="http://www.w3.org/1999/xlink">
    <!-- Generator: Sketch 52.2 (67145) - http://www.bohemiancoding.com/sketch -->
    <title>Stockholm-icons / Cooking / Knife&amp;fork#1</title>
    <desc>Created with Sketch.</desc>
    <g id="Stockholm-icons-/-Cooking-/-Knife&amp;fork#1" stroke="none" stroke-width="1" fill="none" fill-rule="evenodd">
        <rect id="bound" x="0" y="0" width="24" height="24"></rect>
        <path d="M6,3 L6.45024814,7.5024814 C6.47849172,7.78491722 6.71615552,8 7,8 C7.28384448,8 7.52150828,7.78491722 7.54975186,7.5024814 L8,3 L9,3 L9.45024814,7.5024814 C9.47849172,7.78491722 9.71615552,8 10,8 C10.2838445,8 10.5215083,7.78491722 10.5497519,7.5024814 L11,3 L12,3 L12,7.5 C12,9.43299662 10.4329966,11 8.5,11 C6.56700338,11 5,9.43299662 5,7.5 L5,3 L6,3 Z" id="Combined-Shape" fill="#335EEA"></path>
        <path d="M8.5,13 L8.5,13 C9.06103732,13 9.52434927,13.4382868 9.55547002,13.9984604 L9.91679497,20.5023095 C9.96026576,21.2847837 9.36118509,21.9543445 8.57871083,21.9978153 C8.55249915,21.9992715 8.5262521,22 8.5,22 L8.5,22 C7.71631915,22 7.0810203,21.3647011 7.0810203,20.5810203 C7.0810203,20.5547682 7.08174882,20.5285212 7.08320503,20.5023095 L7.44452998,13.9984604 C7.47565073,13.4382868 7.93896268,13 8.5,13 Z" id="Rectangle" fill="#335EEA" opacity="0.3"></path>
        <path d="M17.5,15 L17.5,15 C18.0634495,15 18.5311029,15.4354411 18.571247,15.9974587 L18.8931294,20.503812 C18.9480869,21.2732161 18.3689134,21.9414932 17.5995092,21.9964506 C17.5663922,21.9988161 17.5332014,22 17.5,22 L17.5,22 C16.7286356,22 16.1033212,21.3746856 16.1033212,20.6033212 C16.1033212,20.5701198 16.1045051,20.536929 16.1068706,20.503812 L16.428753,15.9974587 C16.4688971,15.4354411 16.9365505,15 17.5,15 Z" id="Rectangle-Copy" fill="#335EEA" opacity="0.3"></path>
        <path d="M19,3 L19,13 L15,13 L15,7 C15,4.790861 16.790861,3 19,3 Z" id="Path-65" fill="#335EEA"></path>
    </g>
</svg>

<svg width="24" height="24" viewBox="0 0 24 24" xmlns="http://www.w3.org/2000/svg"><g fill="none" fill-rule="evenodd"><path d="M0 0h24v24H0z"/><path d="M6 3l.45 4.502a.552.552 0 001.1 0L8 3h1l.45 4.502a.552.552 0 001.1 0L11 3h1v4.5a3.5 3.5 0 01-7 0V3h1z" fill="#335EEA"/><path d="M8.5 13c.561 0 1.024.438 1.055.998l.362 6.504A1.419 1.419 0 018.5 22a1.419 1.419 0 01-1.417-1.498l.362-6.504c.03-.56.494-.998 1.055-.998zM17.5 15c.563 0 1.031.435 1.071.997l.322 4.507A1.397 1.397 0 0117.5 22a1.397 1.397 0 01-1.393-1.496l.322-4.507c.04-.562.508-.997 1.071-.997z" fill="#335EEA" opacity=".3"/><path d="M19 3v10h-4V7a4 4 0 014-4z" fill="#335EEA"/></g></svg>
